packages/assets/static/images/icons/campfire.svg

<svg width="24" height="24" viewBox="0 0 24 24" xmlns="http://www.w3.org/2000/svg">
<path d="M20.9643 21.2247C20.9345 21.3185 20.8865 21.4056 20.823 21.4809C20.7595 21.5562 20.6817 21.6183 20.5942 21.6636C20.5067 21.7089 20.4112 21.7364 20.313 21.7448C20.2149 21.7531 20.116 21.742 20.0222 21.7122L12 19.1593L3.97778 21.7122C3.88391 21.742 3.78507 21.7531 3.68692 21.7447C3.58876 21.7364 3.49321 21.7088 3.40572 21.6635C3.31823 21.6183 3.24052 21.5562 3.17701 21.4809C3.1135 21.4056 3.06545 21.3185 3.03559 21.2247C3.00574 21.1308 2.99467 21.0319 3.00301 20.9338C3.01135 20.8356 3.03894 20.7401 3.08421 20.6526C3.12948 20.5651 3.19154 20.4874 3.26684 20.4239C3.34215 20.3604 3.42922 20.3123 3.52309 20.2825L9.5231 18.3728L3.52309 16.4622C3.42663 16.4345 3.33668 16.3878 3.25859 16.3248C3.18049 16.2618 3.11583 16.1838 3.06843 16.0954C3.02104 16.0069 2.99187 15.9099 2.98266 15.81C2.97345 15.71 2.98438 15.6093 3.01481 15.5137C3.04524 15.4181 3.09455 15.3295 3.15981 15.2533C3.22507 15.1771 3.30497 15.1147 3.39476 15.07C3.48456 15.0252 3.58242 14.9989 3.68257 14.9926C3.78271 14.9863 3.8831 15.0002 3.97778 15.0334L12 17.5853L20.0222 15.0334C20.1168 15.0002 20.2172 14.9863 20.3174 14.9926C20.4175 14.9989 20.5154 15.0252 20.6052 15.07C20.695 15.1147 20.7749 15.1771 20.8401 15.2533C20.9054 15.3295 20.9547 15.4181 20.9851 15.5137C21.0156 15.6093 21.0265 15.71 21.0173 15.81C21.0081 15.9099 20.9789 16.0069 20.9315 16.0954C20.8841 16.1838 20.8195 16.2618 20.7414 16.3248C20.6633 16.3878 20.5733 16.4345 20.4768 16.4622L14.4768 18.3728L20.4768 20.2825C20.5707 20.3123 20.6578 20.3603 20.7331 20.4239C20.8084 20.4874 20.8705 20.5651 20.9158 20.6526C20.961 20.7401 20.9886 20.8356 20.997 20.9338C21.0053 21.0319 20.9942 21.1308 20.9643 21.2247ZM6.37497 10.1228C6.37497 8.2384 7.29091 6.29121 9.02247 4.49778C9.79942 3.68983 10.6667 2.97388 11.6072 2.36403C11.7253 2.29139 11.8613 2.25293 12 2.25293C12.1387 2.25293 12.2746 2.29139 12.3928 2.36403C12.6065 2.49059 17.625 5.63028 17.625 10.1228C17.625 11.6146 17.0323 13.0454 15.9774 14.1003C14.9226 15.1551 13.4918 15.7478 12 15.7478C10.5081 15.7478 9.07739 15.1551 8.02249 14.1003C6.9676 13.0454 6.37497 11.6146 6.37497 10.1228ZM12 14.2478C12.3978 14.2478 12.7793 14.0897 13.0606 13.8084C13.3419 13.5271 13.5 13.1456 13.5 12.7478C13.5 11.4756 12.5625 10.4547 12 9.95496C11.4375 10.4547 10.5 11.4756 10.5 12.7478C10.5 13.1456 10.658 13.5271 10.9393 13.8084C11.2206 14.0897 11.6021 14.2478 12 14.2478ZM7.87497 10.1228C7.87464 11.1783 8.2805 12.1934 9.00841 12.9578C9.00841 12.8884 8.99997 12.8181 8.99997 12.7478C8.99997 10.1228 11.4787 8.44371 11.5837 8.3734C11.707 8.29117 11.8518 8.24729 12 8.24729C12.1481 8.24729 12.293 8.29117 12.4162 8.3734C12.5212 8.44371 15 10.1228 15 12.7478C15 12.8181 15 12.8884 14.9915 12.9578C15.7194 12.1934 16.1253 11.1783 16.125 10.1228C16.125 7.12278 13.1006 4.68528 12 3.9034C10.9003 4.68528 7.87497 7.12278 7.87497 10.1228Z"/>
</svg>

<svg viewBox="0 0 24 24" xmlns="http://www.w3.org/2000/svg" aria-hidden="true" fill="currentColor"><path d="M20.964 21.225a.75.75 0 0 1-.942.487L12 19.16l-8.022 2.553a.75.75 0 0 1-.455-1.43l6-1.91-6-1.91a.752.752 0 0 1-.128-1.392.75.75 0 0 1 .583-.037L12 17.585l8.022-2.552a.75.75 0 1 1 .455 1.43l-6 1.91 6 1.91a.75.75 0 0 1 .487.942M6.375 10.123c0-1.885.916-3.832 2.647-5.625a14.6 14.6 0 0 1 2.585-2.134.75.75 0 0 1 .786 0c.213.127 5.232 3.266 5.232 7.759a5.625 5.625 0 0 1-11.25 0M12 14.248a1.5 1.5 0 0 0 1.5-1.5c0-1.272-.937-2.293-1.5-2.793-.562.5-1.5 1.52-1.5 2.793a1.5 1.5 0 0 0 1.5 1.5m-4.125-4.125a4.1 4.1 0 0 0 1.133 2.835c0-.07-.008-.14-.008-.21 0-2.625 2.479-4.304 2.584-4.375a.75.75 0 0 1 .832 0c.105.07 2.584 1.75 2.584 4.375q.002.105-.008.21a4.1 4.1 0 0 0 1.133-2.835c0-3-3.024-5.438-4.125-6.22-1.1.782-4.125 3.22-4.125 6.22"/></svg>
